src/assets/homepage/skills/item4.svg

<svg width="42" height="29" viewBox="0 0 42 29" fill="none" xmlns="http://www.w3.org/2000/svg">
<g id="Black">
<path id="Vector" d="M20.211 0.906006C19.0839 1.22549 17.9479 2.16621 17.4687 3.19567C16.6877 4.87299 17.0072 6.7278 18.294 8.00575C19.2259 8.94647 20.3086 9.36358 21.5954 9.27483C24.6749 9.07959 26.5209 5.72496 25.0477 2.99156C24.7193 2.39695 23.9472 1.60711 23.3615 1.29649C22.4563 0.808385 21.1517 0.648641 20.211 0.906006Z" fill="#3B4AE2"/>
<path id="Vector_2" d="M6.62382 4.81083C5.42574 5.23681 4.66252 6.14203 4.43178 7.39336C4.17441 8.77781 4.96426 10.2688 6.26884 10.8811C6.7037 11.0852 6.89006 11.1207 7.61779 11.1207C8.34551 11.1207 8.53188 11.0852 8.96674 10.8811C11.6114 9.64753 11.4872 5.89354 8.7715 4.8552C8.24789 4.65996 7.12968 4.63333 6.62382 4.81083Z" fill="#3B4AE2"/>
<path id="Vector_3" d="M33.4871 4.81079C32.857 5.00603 32.431 5.28115 31.9962 5.74263C31.3394 6.44373 31.1797 6.86084 31.1797 7.9258C31.1797 8.75115 31.1974 8.85764 31.4726 9.40788C31.8187 10.109 32.289 10.5616 33.0789 10.9254C33.5847 11.1651 33.7622 11.2006 34.3923 11.2006C35.0668 11.2006 35.1733 11.1739 35.8123 10.8456C36.6199 10.4373 37.1346 9.86936 37.4363 9.06176C37.7115 8.32516 37.6582 7.24245 37.3121 6.55023C36.5932 5.11253 34.9248 4.35818 33.4871 4.81079Z" fill="#3B4AE2"/>
<path id="Vector_4" d="M17.6817 9.41676C15.3299 10.3752 13.4663 12.1324 12.4013 14.4043C12.206 14.8126 12.0552 15.1764 12.0552 15.2208C12.0552 15.2741 12.2327 15.2829 12.5255 15.2386C16.1908 14.6795 22.9267 14.4043 25.8553 14.6972C27.2131 14.8303 29.5028 15.1232 30.124 15.2386C30.3637 15.2829 30.5766 15.3096 30.5944 15.2918C30.6121 15.2652 30.4258 14.8392 30.1773 14.3245C29.0236 11.9638 26.9646 10.109 24.5951 9.29252L24.1159 9.13277L23.7698 9.34577C23.0775 9.78062 22.3853 9.95812 21.3292 9.95812C20.2554 9.96699 19.7495 9.84275 18.9153 9.38126C18.6579 9.23927 18.4361 9.1239 18.4272 9.1239C18.4095 9.1239 18.0722 9.25702 17.6817 9.41676Z" fill="#3B4AE2"/>
<path id="Vector_5" d="M4.64457 11.4935C2.08866 12.6294 0.420216 14.8747 0.0652289 17.6525C0.00310614 18.0874 -0.0146432 18.469 0.0119808 18.4956C0.0386049 18.5222 0.713081 18.2915 1.5118 17.972C4.06771 16.9514 7.04961 16.0994 10.0315 15.5314L11.2651 15.2918L11.5579 14.573C11.7177 14.1736 11.9928 13.5968 12.1703 13.295C12.3478 12.9933 12.4987 12.7182 12.4987 12.6738C12.4987 12.4786 10.9633 11.5733 10.2534 11.3426C9.93388 11.245 9.86288 11.2538 9.28603 11.5201C8.20332 12.0171 6.73012 11.9816 5.77165 11.4225C5.39004 11.2006 5.28354 11.2095 4.64457 11.4935Z" fill="#3B4AE2"/>
<path id="Vector_6" d="M31.4018 11.5113C30.8693 11.742 29.8931 12.2922 29.8931 12.3632C29.8931 12.381 30.0883 12.7182 30.3279 13.1176C30.5675 13.5081 30.887 14.1382 31.0468 14.5198C31.4106 15.4339 31.4284 15.4694 31.6769 15.496C31.7922 15.5137 32.6087 15.6824 33.4873 15.8776C36.2118 16.4811 38.892 17.2975 40.8711 18.1406C41.3769 18.3536 41.8384 18.5311 41.9005 18.5311C42.1934 18.5311 41.794 16.4456 41.297 15.3717C40.8977 14.4931 40.3563 13.7477 39.602 13.0199C38.8742 12.3277 38.253 11.9106 37.3478 11.529L36.6911 11.245L36.1053 11.5113C34.9783 12.0349 33.7713 12.0349 32.6531 11.5201C32.3425 11.3693 32.0674 11.2539 32.0319 11.2539C32.0052 11.2628 31.7213 11.3693 31.4018 11.5113Z" fill="#3B4AE2"/>
<path id="Vector_7" d="M20.211 17.2709L19.4477 19.3742L17.0338 19.3653C15.7115 19.3564 14.6377 19.3653 14.6465 19.3742C15.8979 20.4036 18.3207 22.4803 18.3384 22.5336C18.3562 22.5779 18.081 23.6074 17.7349 24.8321C17.3799 26.0657 17.1137 27.0774 17.1315 27.0952C17.1492 27.1129 17.9657 26.5716 18.933 25.8882C19.9092 25.2048 20.7789 24.6014 20.8677 24.557C20.9919 24.486 21.3824 24.7167 22.9532 25.8083C24.0093 26.5361 24.8879 27.1129 24.8968 27.0774C24.9057 27.033 24.6217 26.0036 24.2667 24.7877L23.6188 22.5691L25.7843 21.1402L27.9586 19.7114L27.3018 19.6493C26.9469 19.6227 25.7488 19.5783 24.6483 19.5428L22.6426 19.4807L21.8528 17.3241C21.4179 16.1349 21.0452 15.1587 21.0186 15.1587C20.9919 15.1587 20.6281 16.1083 20.211 17.2709Z" fill="#3B4AE2"/>
<path id="Vector_8" d="M11.0256 19.9954C10.9812 20.093 10.7682 20.6699 10.5463 21.2822L10.1381 22.3916L8.70039 22.3738C7.91055 22.3649 7.2627 22.3649 7.2627 22.3738C7.2627 22.3916 7.75968 22.8176 8.37203 23.3234C8.98438 23.8293 9.48137 24.2908 9.48137 24.344C9.48137 24.3884 9.30387 25.0185 9.09088 25.7373C8.88676 26.4651 8.72702 27.0508 8.74477 27.0508C8.76252 27.0508 9.295 26.6869 9.9251 26.2432L11.0788 25.4356L12.2325 26.2432C12.8626 26.6869 13.3951 27.0508 13.4217 27.0508C13.4395 27.0508 13.2797 26.4473 13.0667 25.7107C12.8537 24.9741 12.694 24.344 12.7118 24.3085C12.7384 24.273 13.3241 23.8648 14.0163 23.4033L15.2765 22.5691L13.7057 22.5069C12.836 22.4714 12.1083 22.4271 12.0816 22.4093C12.0639 22.3827 11.8332 21.7881 11.5669 21.087C11.2031 20.1019 11.0788 19.8534 11.0256 19.9954Z" fill="#3B4AE2"/>
<path id="Vector_9" d="M29.7156 21.8058L29.2364 23.137L27.8164 23.0838C26.5385 23.0394 26.4054 23.0483 26.5207 23.1725C26.5917 23.2435 27.0976 23.6784 27.6301 24.131C28.1714 24.5836 28.6063 24.9919 28.5974 25.0451C28.5885 25.0983 28.4199 25.7196 28.2158 26.4207C28.0117 27.1129 27.8519 27.6986 27.8697 27.7164C27.8874 27.7253 28.3933 27.388 29.0056 26.9532C29.618 26.5183 30.1594 26.1722 30.2037 26.1722C30.257 26.1722 30.7895 26.5272 31.4018 26.9532C32.0142 27.388 32.52 27.7253 32.5378 27.7164C32.5555 27.6986 32.3869 27.0863 32.165 26.3497L31.7745 25.0007L33.0614 24.1399L34.3571 23.279L33.4785 23.2258C32.9993 23.1903 32.2804 23.1637 31.8899 23.1548L31.1799 23.1459L30.7007 21.8147C30.4433 21.0781 30.2215 20.4835 30.2126 20.4835C30.2037 20.4835 29.9819 21.0781 29.7156 21.8058Z" fill="#3B4AE2"/>
<path id="Vector_10" d="M4.28974 24.0157L4.01462 24.7878H3.10053H2.19531L2.4438 25.0097C2.5858 25.1339 2.90529 25.409 3.15378 25.6309L3.61526 26.0303L3.3579 26.8733C3.2159 27.3348 3.09166 27.7253 3.09166 27.7431C3.09166 27.7608 3.41114 27.5567 3.80163 27.2816C4.19212 27.0065 4.5471 26.7846 4.60035 26.7846C4.64473 26.7846 4.95534 26.9798 5.2837 27.2106C6.07355 27.7697 6.11792 27.7963 6.06468 27.6543C6.04693 27.5922 5.94043 27.2461 5.84281 26.8822C5.73631 26.5272 5.62982 26.1811 5.61207 26.119C5.58544 26.048 5.89606 25.7995 6.38416 25.4889L7.20951 24.9653L6.1978 24.8765L5.18608 24.7878L4.91097 24.0157C4.76897 23.5808 4.62698 23.2347 4.60035 23.2347C4.57373 23.2347 4.43173 23.5808 4.28974 24.0157Z" fill="#3B4AE2"/>
<path id="Vector_11" d="M35.9279 23.9624C35.9279 24.0245 35.8125 24.3795 35.6794 24.7434L35.4309 25.409L34.5612 25.4533L33.6826 25.4977L34.3571 26.0568L35.0316 26.6071L34.8984 27.0508C34.8275 27.2993 34.7121 27.6986 34.6411 27.9383L34.5168 28.3909L35.2268 27.8939C35.6173 27.6276 35.9723 27.4058 36.0167 27.4058C36.061 27.4058 36.4249 27.6365 36.8243 27.9116C37.2236 28.1868 37.5342 28.3554 37.5076 28.2755C37.4721 28.2045 37.3656 27.8406 37.2591 27.4857C37.1615 27.1218 37.055 26.7846 37.0372 26.7224C37.0195 26.6603 37.3656 26.3852 37.8182 26.1012L38.6347 25.5865L37.623 25.4977L36.6113 25.409L36.3361 24.6369C36.0877 23.9269 35.9279 23.6695 35.9279 23.9624Z" fill="#3B4AE2"/>
</g>
</svg>

<svg width="42" height="29" fill="none" xmlns="http://www.w3.org/2000/svg"><g fill="#3B4AE2"><path d="M20.211.906c-1.127.32-2.263 1.26-2.742 2.29-.781 1.677-.462 3.532.825 4.81.932.94 2.015 1.358 3.301 1.269 3.08-.195 4.926-3.55 3.453-6.283-.329-.595-1.1-1.385-1.686-1.696-.906-.488-2.21-.647-3.151-.39ZM6.624 4.81c-1.198.427-1.961 1.332-2.192 2.583-.258 1.385.532 2.876 1.837 3.488.435.204.621.24 1.349.24s.914-.036 1.349-.24c2.644-1.233 2.52-4.987-.196-6.026-.523-.195-1.641-.222-2.147-.044ZM33.487 4.81a3.19 3.19 0 0 0-1.49.933c-.658.7-.817 1.118-.817 2.183 0 .825.017.932.293 1.482.346.701.816 1.154 1.606 1.517.506.24.683.276 1.313.276.675 0 .781-.027 1.42-.355.808-.409 1.323-.977 1.624-1.784.276-.737.222-1.82-.124-2.512-.719-1.437-2.387-2.192-3.825-1.74Z"/><path d="M17.682 9.417c-2.352.958-4.216 2.715-5.28 4.987-.196.409-.347.772-.347.817 0 .053.178.062.47.018 3.666-.56 10.402-.835 13.33-.542 1.358.133 3.648.426 4.269.542.24.044.453.07.47.053.018-.027-.168-.453-.417-.967-1.153-2.361-3.212-4.216-5.582-5.032l-.48-.16-.345.213c-.692.435-1.385.612-2.44.612-1.075.009-1.58-.115-2.415-.577a8.886 8.886 0 0 0-.488-.257 14.8 14.8 0 0 0-.745.293ZM4.645 11.493C2.089 12.63.42 14.875.065 17.654c-.062.434-.08.816-.053.843.027.026.701-.204 1.5-.524 2.556-1.02 5.538-1.873 8.52-2.44l1.233-.24.293-.719c.16-.4.435-.976.612-1.278.178-.302.329-.577.329-.621 0-.195-1.536-1.1-2.246-1.331-.32-.098-.39-.09-.967.177-1.083.497-2.556.462-3.514-.098-.382-.221-.488-.213-1.127.071ZM31.402 11.511c-.533.231-1.509.781-1.509.852 0 .018.195.355.435.755.24.39.559 1.02.719 1.402.364.914.381.95.63.976.115.018.932.186 1.81.382 2.725.603 5.405 1.42 7.384 2.263.506.213.967.39 1.03.39.292 0-.107-2.085-.604-3.16-.4-.878-.94-1.623-1.695-2.351-.728-.692-1.349-1.11-2.254-1.491l-.657-.284-.586.266a4.02 4.02 0 0 1-3.452.01c-.31-.152-.586-.267-.621-.267-.027.009-.31.115-.63.257Z"/><path d="m20.211 17.27-.763 2.104-2.414-.009c-1.322-.009-2.396 0-2.387.01 1.25 1.029 3.674 3.105 3.691 3.159.018.044-.257 1.073-.603 2.298-.355 1.234-.621 2.245-.604 2.263.018.018.835-.523 1.802-1.207.976-.683 1.846-1.287 1.935-1.331.124-.071.514.16 2.085 1.251 1.056.728 1.935 1.305 1.944 1.27.009-.045-.275-1.074-.63-2.29l-.648-2.219 2.165-1.429 2.175-1.429-.657-.062c-.355-.026-1.553-.07-2.654-.106l-2.005-.062-.79-2.157c-.435-1.19-.808-2.165-.834-2.165-.027 0-.39.95-.808 2.112ZM11.026 19.995c-.045.098-.258.675-.48 1.287l-.408 1.11-1.438-.018c-.79-.01-1.437-.01-1.437 0 0 .018.497.444 1.109.95.612.505 1.11.967 1.11 1.02 0 .044-.178.674-.391 1.393-.204.728-.364 1.314-.346 1.314.018 0 .55-.364 1.18-.808l1.154-.807 1.153.807c.63.444 1.163.808 1.19.808.018 0-.142-.604-.355-1.34-.213-.737-.373-1.367-.355-1.402.026-.036.612-.444 1.304-.906l1.26-.834-1.57-.062c-.87-.036-1.598-.08-1.624-.098a44.19 44.19 0 0 1-.515-1.322c-.364-.985-.488-1.234-.541-1.092Z"/><path d="m29.716 21.806-.48 1.331-1.42-.053c-1.277-.045-1.41-.036-1.295.088.07.072.577.506 1.11.959.54.453.975.86.966.914a39.82 39.82 0 0 1-.381 1.376c-.204.692-.364 1.278-.346 1.295.017.01.523-.328 1.136-.763.612-.435 1.153-.78 1.198-.78.053 0 .585.354 1.198.78.612.435 1.118.772 1.136.763.018-.017-.151-.63-.373-1.366l-.39-1.35 1.286-.86 1.296-.861-.879-.053a37.212 37.212 0 0 0-1.588-.071l-.71-.01-.48-1.33c-.257-.737-.479-1.332-.487-1.332-.01 0-.231.595-.497 1.323ZM4.29 24.016l-.275.772h-1.82l.249.222c.142.124.461.399.71.62l.461.4-.257.843c-.142.462-.266.852-.266.87 0 .018.32-.186.71-.461.39-.276.745-.497.798-.497.045 0 .355.195.684.426.79.559.834.585.78.443-.017-.062-.124-.408-.221-.772-.107-.355-.213-.7-.23-.763-.028-.071.283-.32.771-.63l.826-.524-1.012-.088-1.012-.09-.275-.771c-.142-.435-.284-.781-.31-.781-.027 0-.17.346-.311.78ZM35.928 23.962c0 .063-.115.418-.249.781l-.248.666-.87.044-.878.045.674.559.675.55-.134.444c-.07.248-.186.648-.257.887l-.124.453.71-.497c.39-.266.745-.488.79-.488.044 0 .408.23.807.506.4.275.71.443.684.364-.036-.072-.142-.435-.249-.79-.098-.364-.204-.701-.222-.764-.017-.062.329-.337.781-.62l.817-.515-1.012-.09-1.012-.088-.275-.772c-.248-.71-.408-.968-.408-.675Z"/></g></svg>
